X:1
T:Alleluja collection
T:Alleluja
T:Copyright © 
T:Copyright © 
T:Copyright © 
Z:Copyright ©
%%score [ ( 1 2 ) ( 3 4 ) ]
L:1/8
M:4/4
K:G
V:1 treble nm=" " snm=" "
V:2 treble 
V:3 bass nm="P2"
V:4 bass 
V:1
"^I""^Larghetto" D2 (EF) G2 G2 | (Ac) (BA) A2"^harm.A. Solims" !fermata!G2 || %2
w: Al- le- * lu- ja,|al- * le- * lu- ja.|
w: ||
"^Versus" B16 A2 B2 G2 A4 | F16 A2 G2 F2 E4 D4 |][M:4/4]"^II""^Andante"[Q:1/4=80] G2 (AF) G2 D2 | %5
w: ||Al- le- * lu- ja,|
w: |||
 BB (cA)"^h. A. Solims" B4 ||"^Versus" G16 B2 c2 A2 F2 D4 | G16 (A2 F2) G4 |] %8
w: al- le- lu- * ja.|||
w: |||
[K:F][M:4/4]"^III""^Andante"[Q:1/4=80] FEFG AGAB | (cd) (cB) (A2"^-""^-" G2) |"^h. A. Solims" F8 || %11
w: Al- le- lu- ja, al- le- lu- ja,|al- * le- * lu- *|ja,|
w: ||\-~ja.|
"^Versus" A16 B2 c2 c4 | A16 G2 F2 F4 |][M:3/4]"^IV""^Andante"[Q:1/4=80] CC F2 F2 | EF G2 G2 | %15
w: ||Al- le- lu- ja,|al- le- lu- ja,|
w: ||||
 (AB"^-" c2) B2 | (AG)"^h. A. Solims" F4 ||"^Versus" F16 E2 D2 D4 | G16 F2 E4 F4 |] %19
w: al- * * le-|lu- * ja.|||
w: ||||
[M:6/8]"^V""^Moderato"[Q:1/4=100] C | (FE)F GFG | A3"^-" c3 | (BA)G (=F2 E) | %23
w: Al-|le- * lu- ja, al- le-|lu- ja,|al- * le- lu- *|
w: ||||
"^h. A. Solims" F3- F2 ||"^Versus" A16 (G2 F2) G2 A4 c4 | B16 A2 G2 (F4 E2) F4 |] %26
w: ja. _|_ _ _ _ _ _||
w: |||
V:2
 D2 (^C=C) D2 E2 | (EA) (GF) (ED/C/) D2 || x26 | x30 |][M:4/4] D2 (DC) (B,^C) D2 | G^G (AF) =G4 || %6
 x28 | x24 |][K:F][M:4/4] CCCE FEFF | F2 (ED) (CF E2) | CCDB, C4 || x24 | x24 |] %13
[M:3/4] CB, A,2 =B,2 | CC E2 C2 | (FG A2) G2 | E2 C4 || x24 | x26 |][M:6/8] C | C2 C CCE | %21
 F3 (A2 ^F) | (G^F)D C3 | C3- C2 || x30 | x30 |] %26
V:3
 F,2 (G,A,) B,2 B,2 | (CE) (DC) (CB,/A,/) B,2 || z26 | z30 |][M:4/4] B,2 (CA,) (G,E,) F,2 | %5
w: |||||
 DD (EC) D4 || z28 | z24 |][K:F][M:4/4] A,B,A,B, CCCB, | (A,B,) (A,G,) (F,A, B,2) | A,A,B,G, A,4 || %11
w: |||||\-~ja. * * * *|
 z24 | z24 |][M:3/4] A,G, F,2 G,2 | G,A, B,2 B,2 | (C2 _E2) (D_D) | (CB,) A,4 || z24 | z26 |] %19
w: ||||||||
[M:6/8] C, | (A,G,)A, B,A,B, | (CD_E) D3 | (DC)B, A,2 G, | A,3- A,2 || z30 | z30 |] %26
w: |||||||
V:4
 D,2 D,2 (G,F,) (E,D,) | (C,A,,) D,2 G,2 !fermata!G,2 || x26 | x30 |] %4
[M:4/4] G,2 (F,D,) (G,,A,,) D,2 | G,E, ([A,,A,]D,) G,4 || x28 | x24 |] %8
[K:F][M:4/4] F,G,F,C, F,E,_E,D, | (C,B,,) C,2 (C,2 D,E,) | F,8 || x24 | x24 |] %13
[M:3/4] F,E, D,2 D,2 | C,C, C,2 E,2 | (F,2 ^F,2) (G,=F,) | C,2 F,4 || x24 | x26 |][M:6/8] C, | %20
 F,2 F, E,D,E, | F,3 (^F,2 D,) | (G,,A,,)B,, C,3 | F,3- F,2 || x30 | x30 |] %26

